X: 381
T: Scotch Bonnet
S: MS of Walter Rainstorp 1747++ 
S: https://brbl-dl.library.yale.edu/vufind/Record/3444369
F: https://brbl-dl.library.yale.edu/pdfgen/exportPDF.php?bibid=2057949&solrid=3444369
%R: shottish, strathspey
Z: 2019 John Chambers <jc:trillian.mit.edu>
M: 2/4
L: 1/8
K: G
|:\
G>AB>c | d>Bc>B | A>Bc>d | Te2 e2 |\
G>Bc>d | e>fg>e | d>Bc>A | TG2 G2 :|
|:\
B>GA>B| A>FE>D | B>GA>B | E2 TE2 |\
B>GA>B | A>FE>D | d>Bc>A | GG TG2 :|
|:\
g>d B>G | g>d B>G | B>GA>B | EE TE2 |\
g>d B>G | g>dB>G | d>Bc>A | TG2 G2 :|
%%begintext align
%% 1st Cu. sets to 2d Wo: & turn .|
%% the same to 2d Man :|
%% Cross over one Cu .|
%% lead up and cast off :|
%% Hands across with 3d Cu .|.
%% right & left with the 2d Cu. at top :|:
%%endtext
